components/brave_wallet_ui/page/screens/swap/assets/lp-icons/saber.svg

<svg width="18" height="18" viewBox="0 0 18 18" fill="none" xmlns="http://www.w3.org/2000/svg">
	<g clip-path="url(#clip0_750_11804)">
		<path fill-rule="evenodd" clip-rule="evenodd" d="M17.4978 1.2635C17.4978 0.791609 17.1152 0.409067 16.6434 0.409067L3.79532 0.409058C3.23389 0.409058 2.74264 0.49049 2.32156 0.653358C1.9005 0.828752 1.54959 1.06053 1.26888 1.34868C0.976468 1.64936 0.760084 1.98763 0.619726 2.36347C0.479368 2.75185 0.409187 3.15276 0.409187 3.56619V5.53564C0.409187 6.47942 1.17427 7.2445 2.11805 7.2445H12.3712L7.24465 3.82678H16.6434C17.1152 3.82678 17.4978 3.44423 17.4978 2.97235V1.2635ZM0.40918 16.6432C0.40918 17.1151 0.791721 17.4977 1.26361 17.4977H14.1117C14.6731 17.4977 15.1644 17.4162 15.5854 17.2534C16.0065 17.078 16.3573 16.8462 16.6381 16.558C16.9305 16.2573 17.1469 15.9191 17.2873 15.5432C17.4276 15.1548 17.4978 14.754 17.4978 14.3405V12.371C17.4978 11.4273 16.7327 10.6622 15.789 10.6622H5.53575L10.6623 14.0799H1.26361C0.791721 14.0799 0.40918 14.4625 0.40918 14.9344V16.6432Z" fill="#6966FB" />
	</g>
	<defs>
		<clipPath id="clip0_750_11804">
			<rect width="17.1818" height="18" fill="white" transform="translate(0.40918)" />
		</clipPath>
	</defs>
</svg>

<svg xmlns="http://www.w3.org/2000/svg" width="18" height="18" fill="none"><g clip-path="url(#a)"><path fill="#6966FB" fill-rule="evenodd" d="M17.498 1.264a.854.854 0 0 0-.855-.855H3.795c-.561 0-1.052.081-1.473.244a3.124 3.124 0 0 0-1.053.696 2.9 2.9 0 0 0-.65 1.014c-.14.389-.21.79-.21 1.203v1.97a1.71 1.71 0 0 0 1.71 1.709H12.37L7.245 3.827h9.398a.854.854 0 0 0 .855-.855V1.264ZM.409 16.643c0 .471.383.854.855.854h12.848c.561 0 1.052-.082 1.473-.245a3.124 3.124 0 0 0 1.053-.695c.292-.3.509-.639.65-1.015.14-.388.21-.789.21-1.202v-1.97c0-.944-.765-1.709-1.709-1.709H5.536l5.126 3.418H1.264a.854.854 0 0 0-.855.854v1.71Z" clip-rule="evenodd"/></g><defs><clipPath id="a"><path fill="#fff" d="M.41 0h17.18v18H.41z"/></clipPath></defs></svg>
